!!!COM: Beethoven, Ludwig van
!!!CDT: 1770///-1827///
!!!OTL: Piano Sonata no. 6 in F major
!!!ODT: 1795///-1797///
!!!OMD: Allegro
!!!OPS: 10
!!!ONM: 2
!!!OMV: 1
**kern	**kern	**dynam
*staff2	*staff1	*staff1/2
*Ipiano	*Ipiano	*Ipiano
*>[A,A1,A,A2,B,B]	*>[A,A1,A,A2,B,B]	*>[A,A1,A,A2,B,B]
*>norep[A,A2,B]	*>norep[A,A2,B]	*>norep[A,A2,B]
*>A	*>A	*>A
*clefF4	*clefG2	*
*k[b-]	*k[b-]	*
*F:	*F:	*
*M2/4	*M2/4	*
*MM116	*MM116	*
!	!	!LO:DY:rj
8FF' 8C' 8F'	8A' 8c' 8f' 8a'	p
=1	=1	=1
4FF' 4C' 4F'	4c' 4f' 4a' 4cc'	.
4r	8r	.
.	(24ccLL	.
.	24bn	.
.	24ddJJ)	.
=2	=2	=2
4r	4cc	.
8r	8r	.
8FF' 8C' 8F'	8c' 8f' 8a'	.
=3	=3	=3
4EE' 4C' 4E'	4c' 4g' 4b-X'	.
4r	8r	.
.	(24b-LL	.
.	24a	.
.	24ccJJ)	.
=4	=4	=4
2r	4b-	.
.	8r	.
.	(8b-	.
=5	=5	=5
(<4F 4A 4c	16aLL	.
.	16ccJJ	.
.	4ff	.
4G 4B- 4c	.	<
.	8ee	.
*clefG2	*	*
=6	=6	=6
4A 4c 4f	8ff	.
.	4aa	.
4B- 4d 4f 4g	.	[
.	[8gg	.
!!LO:LB:g=original
=7	=7	=7
4c 4f 4a	8gg]	>
.	4aa	.
4e- 4f 4a 4cc	.	.
.	16bb-LL	]
.	16cccJJ)	.
=8	=8	=8
4d 4f 4b-)	(8cccL	.
.	8bb-J)	.
4r	4r	.
=9	=9	=9
(4d 4f 4b-	(8bb-T	.
.	(16aaqLL	.
.	16bb-qJJ	.
.	4ddd)	.
4en 4g 4cc	.	.
.	16cccLL	.
.	16bb-JJ)	.
=10	=10	=10
.	(16aaqLL	.
.	16bb-q	.
.	16cccqJJ	.
4f 4a 4cc	(8bb-L)	.
.	[8aaJ)	.
4B- 4d 4g	(16.aaLL]	.
.	32ggk	.
.	16.bb-	.
.	32ggJJk)	.
=11	=11	=11
4c 4f 4a	(8ggL	.
.	[8ffJ)	.
4c) 4g 4b-	(16.ffLL]	.
.	32eek	.
.	16.gg	.
.	32eeJJk)	.
=12	=12	=12
4f 4a	4ff	.
8r	8r	.
*clefF4	*	*
!	!	!LO:DY:rj
8FF' 8C' 8F'	8A' 8c' 8f' 8a'	p
=13	=13	=13
4FF' 4C' 4F'	4c' 4f' 4a' 4cc'	.
4r	8r	.
.	(24ccLL	.
.	24bn	.
.	24ddJJ)	.
!!LO:LB:g=original
=14	=14	=14
4r	4cc'	.
8r	8r	.
8FF 8C 8D#	8A' 8c' 8d#' 8a'	.
=15	=15	=15
4FF 4C 4D#	4c' 4d#' 4a' 4cc'	rfz
4r	8r	.
.	(24ccLL	.
.	24bn	.
.	24ddJJ)	.
=16	=16	=16
4r	4cc'	.
8r	8r	.
*^	*^	*
!	!	!	!	!LO:DY:rj
24ALL	(8F	24ccLL	(8d#	f
24Bn	.	24bn	.	.
24cJJ	.	24aJJ	.	.
=17	=17	=17	=17	=17
8G#L	8EL)	8ee'<L	8eL)	.
24AL	(8FJ	24ccL	(8d#J	.
24Bn	.	24bn	.	.
24cJJ	.	24aJJ	.	.
8G#L	8EL)	8ee'<L	8eL)	.
24AL	(8FJ	24ccL	(8d#J	.
24B	.	24b	.	.
24cJJ	.	24aJJ	.	.
=18	=18	=18	=18	=18
4G#	4E)	4ee	4e)	.
*v	*v	*	*	*
*	*v	*v	*
8r	8r	.
!LO:S:b	!	!
(16GGnLL	8Gn 8gn	p
16BBnJJ	.	.
=19	=19	=19
16CLL	4E (>4e	.
16E	.	.
16GG	.	.
16BBnJJ	.	.
16CLL	4G 4c 4e 4g	<
16E	.	.
16GG	.	.
16BBJJ	.	.
!!LO:LB:g=original
=20	=20	=20
16CLL	4.c 4.e 4.g 4.cc)	.
16E	.	.
16GG	.	.
16BBnJJ	.	.
16CLL	.	.
16E	.	.
16GG	8e (8ee	.
16BBJJ	.	[[
=21	=21	=21
16CLL	8g 8gg	.
16E	.	.
16GG	4cc 4ccc	sf
16BBnJJ	.	>
16CLL	.	.
16E	.	.
16GG	16ee 16eeeLL	.
16CJJ	16dd 16dddJJ)	.
=22	=22	=22
16DLL	4cc (4ccc	.
16F	.	.
16GG	.	.
16C#JJ	.	]
16DLL	8bn 8bbn)	.
16F	.	.
16GG	8r	.
16C#JJ	.	.
=23	=23	=23
16DLL	4Bn 4d 4f (4bn	.
16F	.	<
16GG	.	.
16C#JJ	.	.
16DLL	4d 4f 4b 4dd	.
16F	.	.
16GG	.	.
16C#JJ	.	.
=24	=24	=24
16DLL	4.f 4.bn 4.dd 4.ff)	.
16F	.	.
16GG	.	.
16C#JJ	.	.
16DLL	.	.
16F	.	.
16GG	8b (8bbn	.
16C#JJ	.	[
=25	=25	=25
*	*	*^
16DLL	8dd 8ddd	>	.
16F	.	.	.
!	!	!	!LO:DY:b
16GG	4ff 4fff	.	sf
16C#JJ	.	.	.
16DLL	.	.	.
16F	.	.	.
16GG	8ee 8eee)	]	.
16DJJ	.	.	.
*	*	*v	*v
!!LO:LB:g=original
=26	=26	=26
16ELL	4dd (4ddd	>
16G	.	.
16C	.	.
16D#JJ	.	.
16ELL	8cc 8ccc)	]
16G	.	.
16E	8r	.
16DnJJ)	.	.
=27	=27	=27
(16CLL	4e 4g 4cc 4ee	ff
16c	.	.
16e	.	.
16dJJ	.	.
16cLL	4g 4cc 4ee 4gg	.
16e	.	.
16c	.	.
16BnJJ	.	.
=28	=28	=28
16ALL	4.cc 4.ccc	.
16c	.	.
16A	.	.
16GJJ	.	.
16F#LL	.	.
16A	.	.
16F#	[8cc# [8ccc#	.
16EJJ	.	.
=29	=29	=29
16DLL	(8cc#] 8ccc#]	.
16E	.	.
16F#	4dd 4ddd	.
16GJJ	.	.
16ALL	.	.
16D	.	.
16E	8ccn 8cccn)	.
16F#JJ)	.	.
=30	=30	=30
*^	*	*
*	*Xbrackettup	*	*
!	!LO:TUP:r=8	!LO:S:a	!
4G	(>24GLL	(8cc 8cccL	.
.	24Bn	.	.
.	24d	.	.
!	!LO:TUP:r=8	!	!
.	24B	8bn 8bbnJ)	.
.	24d	.	.
.	24BJJ)	.	.
*	*Xtuplet	*	*
4A	(>24ALL	8r	.
.	24c	.	.
.	24d	.	.
*	*	*^	*
!	!	!	!	!LO:DY:rj
.	24c	8ff#'	8cc'y	p
.	24d	.	.	.
.	24cJJ)	.	.	.
!!LO:LB:g=original
=31	=31	=31	=31	=31
4G	24GLL	4gg	(>8ccL	.
.	24Bn	.	.	.
.	24d	.	.	.
.	24B	.	8bnJ)	.
.	24d	.	.	.
.	24BJJ	.	.	.
4F#	24F#LL	4ryy	8r	.
.	24A	.	.	.
.	24d	.	.	.
.	24A	.	8ccc'z	.
.	24d	.	.	.
.	24AJJ	.	.	.
=32	=32	=32	=32	=32
4G	24GLL	4ryy	(16cccLL	.
.	24Bn	.	.	.
.	.	.	16bbn	.
.	24d	.	.	.
.	24B	.	16aa	.
.	24d	.	.	.
.	.	.	16ggJJ)	.
.	24BJJ	.	.	.
4A	24ALL	8r	8r	.
.	24c	.	.	.
.	24d	.	.	.
!	!	!	!	!LO:DY:rj
.	24c	8ff#'	8cc'y	sf
.	24d	.	.	.
.	24cJJ	.	.	.
=33	=33	=33	=33	=33
4G	24GLL	4gg	(>16ccLL	.
.	24Bn	.	.	.
.	.	.	16bn	.
.	24d	.	.	.
.	24B	.	16a	.
.	24d	.	.	.
.	.	.	16gJJ)	.
.	24BJJ	.	.	.
4F#	24F#LL	4ryy	8r	.
.	24A	.	.	.
.	24d	.	.	.
.	24A	.	8ccc'z	.
.	24d	.	.	.
.	24AJJ	.	.	.
*	*	*v	*v	*
=34	=34	=34	=34
4G	24GLL	(16cccLL	.
.	24Bn	.	.
.	.	16bbn	.
.	24d	.	.
.	24B	16aa	.
.	24d	.	.
.	.	16ggJJ)	.
.	24BJJ	.	.
4F#	24F#LL	8r	.
.	24A	.	.
.	24d	.	.
.	24A	8ccc'z	.
.	24d	.	.
.	24AJJ	.	.
=35	=35	=35	=35
4G	24GLL	(16cccLL	.
.	24Bn	.	.
.	.	16bbn	.
.	24d	.	.
.	24B	16aa	.
.	24d	.	.
.	.	16ggJJ)	.
.	24BJJ	.	.
4F#	24F#LL	8r	.
.	24A	.	.
.	24d	.	.
.	24A	8ccc'z	.
.	24d	.	.
.	24AJJ	.	.
*v	*v	*	*
!!LO:LB:g=original
=36	=36	=36
8G 8Bn 8d	(16cccLL	>
.	16bbn	.
8r	16aa	.
.	16ggJJ	]
4r	16ff#LL	p
.	16gg	.
.	16aa	.
.	16ggJJ	.
=37	=37	=37
2r	16ff#LL	.
.	16gg	.
.	16aa	.
.	16ggJJ	.
.	16ff#LL	.
.	16gg	.
.	16gg#	.
.	16aaJJ)	.
*clefG2	*	*
=38	=38	=38
*^	*	*
4gn	(>8fL	(8aaL	.
.	8d)	8ffn)	.
8g'L	8Bn	8dd'	.
8g'J	8cJ	8eesSsSJ	.
=39	=39	=39	=39
4g	(>8fL	(8aaL	.
.	8d)	8ff)	.
8g'L	8Bn	8dd'	.
8g'J	8cJ	8eesSsSJ	.
*v	*v	*	*
*clefF4	*	*
=40	=40	=40
8F' 8f'	8a' 8dd' 8ff'	.
8r	8r	.
8G' 8Bn' 8d'	8g' 8bn' 8dd'	.
8r	8r	.
=41	=41	=41
4C' 4E' 4G' 4c'	4e'\ 4g'\ 4cc'\ 4ee'\	.
*clefG2	*	*
8r	8r	.
(8e- 8g	32r	.
.	(32ggLLL	ff
.	32ee-	.
.	32gJJJ)	.
!!LO:LB:g=original
=42	=42	=42
(8fz) 8a-zL	32r	.
.	(32aa-LLL	.
.	32ff	.
.	32gJJJ	.
8d) 8fJ	32r	.
.	32ffLLL	.
.	32dd	.
.	32gJJJ	.
8Bn' 8d'L	32r	.
.	32ddLLL	.
.	32bn	.
.	32gJJJ	.
8c' 8e-'J	32r	.
.	32ee-LLL	.
.	32cc	.
.	32gJJJ)	.
=43	=43	=43
(8fz 8a-zL	32r	.
.	(32aa-LLL	.
.	32ff	.
.	32gJJJ	.
8d) 8fJ	32r	.
.	32ffLLL	.
.	32dd	.
.	32gJJJ	.
8Bn' 8d'L	32r	.
.	32ddLLL	.
.	32bn	.
.	32gJJJ	.
8c' 8e-'J	32r	.
.	32ee-LLL	.
.	32cc	.
.	32gJJJ)	.
*clefF4	*	*
=44	=44	=44
8F' 8A-' 8d'	8a-' 8dd' 8ff'	f
8r	8r	.
8G' 8Bn' 8d'	8f' 8bn' 8dd'	.
8r	8r	.
=45	=45	=45
8A-' 8c'	8e-' 8a-' 8cc'	.
8r	8r	.
4r	4r	.
=46	=46	=46
8F#' 8An' 8c'	8e-' 8an' 8cc'	pp
8r	8r	.
4r	4r	.
!!LO:LB:g=original
=47	=47	=47
8Fn 8GL	16r	.
.	16d 16bnLL	<
8BBn 8G	16r	.
.	16f 16ddJJ	.
8C 8G	16r	.
.	16en 16ccLL>	.
8GG 8GJ	16r	.
.	16cc 16eeJJ	.
=48	=48	=48
8D 8GL	16r	.
.	16bn 16ffLL	.
8GG 8G	16r	.
.	16ff 16bbnJJ	.
8C 8G	16r	.
.	16ee 16cccLL	.
8GG 8GJ	16r	.
.	16ccc 16eeeJJ	.
=49	=49	=49
8D 8GL	16r	.
.	16bbn 16fffLL	.
8F 8G	16r	.
.	16dd 16bbJJ	.
8E 8G	16r	.
.	16ee 16cccLL	.
8C 8GJ	16r	.
.	16gg 16eeeJJ	.
=50	=50	=50
8D 8GL	16r	.
.	16ff 16fffLL	.
8F 8G	16r	.
.	16dd 16bbnJJ	.
8E 8G	16r	.
.	16ee 16cccLL	.
8C 8GJ	16r	.
.	16gg 16eeeJJ	.
=51	=51	=51
8FF 8AA 8D	8r	.
8r	(24dddLL	f
.	24ccc#	.
.	24eeeJJ)	.
8F 8A 8d	8ddd'	.
8r	(24aaLL	.
.	24gg#	.
.	24bbnJJ)	.
!!LO:LB:g=original
=52	=52	=52
2r	8aa'	.
.	(24ffLL	.
.	24ee	.
.	24ggJJ)	.
.	8ff'	.
.	(24ddLL	.
.	24cc#	.
.	24eeJJ)	.
*clefG2	*	*
=53	=53	=53
8r	8dd'	.
(4d	(4ddz	.
16eLL	16eeLL	.
16fJJ)	16ffJJ)	.
=54	=54	=54
4g	[4gg	f
*	*Xtuplet	*
4G 4Bn 4d 4f	(24ggLL]	.
.	24aa	.
.	24ggJJ	.
.	24ffLL	.
.	24ee	.
.	24ddJJ)	.
=55	=55	=55
*tuplet	*	*
!	!	!LO:DY:b=2:rj
(24cLL	4cc	p
24e	.	.
24gJJ)	.	.
*Xtuplet	*	*
24cLL	.	.
24e	.	.
24gJJ	.	.
24cLL	8gg'L	p
24e	.	.
24gJJ	.	.
24cLL	8gg'J	.
24e	.	.
24gJJ	.	.
=56	=56	=56
24cLL	8ee'	.
24e	.	.
24gJJ	.	.
24cLL	8r	.
24e	.	.
24gJJ	.	.
24cLL	8cc' 8ccc'L	.
24e	.	.
24gJJ	.	.
24cLL	8cc' 8ccc'J	.
24e	.	.
24gJJ	.	.
*clefF4	*	*
!!LO:LB:g=original
=57	=57	=57
24F 24ALL	8a' 8aa'	.
24c	.	.
24dJJ	.	.
24F 24ALL	8r	.
24c	.	.
24dJJ	.	.
*	*clefF4	*
24F# 24ALL	8FF#'L	f
24c	.	.
24dJJ	.	.
24F# 24ALL	8FF#'J	.
24c	.	.
24dJJ	.	.
=58	=58	=58
.	(FF#8q	.
24GLL	2GGTT)	ff
24c	.	.
24eJJ	.	.
24GLL	.	.
24c	.	.
24eJJ	.	.
24GLL	.	.
24Bn	.	.
24dJJ	.	.
24GLL	.	.
24B	.	.
24dJJ	.	.
.	(16qFF#LL	.
.	16qGGJJ)	.
=59	=59	=59
!	!	!LO:DY:b=2:rj
32CLLL	4CC	p
32E	.	.
32G	.	.
32cJJJ	.	.
32CLLL	.	.
32E	.	.
32G	.	.
32cJJJ	.	.
*	*clefG2	*
32CLLL	(32gLLK	p
32E	16.gg'JJ)	.
32G	.	.
32cJJJ	.	.
32CLLL	(32gLLK	.
32E	16.gg'JJ)	.
32G	.	.
32cJJJ	.	.
!!LO:LB:g=original
=60	=60	=60
32CLLL	(32eLLK<	.
32E	16.ee'JJ)	.
32G	.	.
32cJJJ	.	.
32CLLL	8r	.
32E	.	.
32G	.	.
32cJJJ	.	.
24ELL	(32ccLLK	.
.	16.ccc'JJ)	.
24G	.	.
24cJJ	.	.
24ELL	(32ccLLK	.
.	16.ccc'JJ)	.
24G	.	.
24cJJ	.	.
=61	=61	=61
32FLLL	(32aLLK	.
32A	16.aa'JJ)	.
32c	.	.
32dJJJ	.	.
32FLLL	8r	.
32A	.	.
32c	.	.
32dJJJ	.	.
*	*clefF4	*
32F#LLL	8FF#'L	f
32A	.	.
32c	.	.
32dJJJ	.	.
32F#LLL	8FF#'J	.
32A	.	.
32c	.	.
32dJJJ	.	.
=62	=62	=62
.	(FF#8q	.
24GLL	2GGTT)	ff
24c	.	.
24eJJ	.	.
24GLL	.	.
24c	.	.
24eJJ	.	.
24GLL	.	.
24Bn	.	.
24dJJ	.	.
24GLL	.	.
24B	.	.
24dJJ	.	.
.	(16qFF#LL	.
.	16qGGJJ)	.
!!LO:LB:g=original
=63	=63	=63
32CLLL	4CC	.
32E	.	.
32G	.	.
32cJJJ	.	.
32CLLL	.	.
32E	.	.
32G	.	.
32cJJJ	.	.
*	*clefG2	*
24CLL	8ff#'L	<
24E-	.	.
24GJJ	.	.
24CLL	8ff#'J	.
24E-	.	.
24GJJ	.	.
=64	=64	=64
.	(ff#8q	.
32GGLLL	2ggTT)	ff
32C	.	.
32D	.	.
32GJJJ	.	.
32GGLLL	.	.
32C	.	.
32D	.	.
32GJJJ	.	.
32GGLLL	.	.
32BBn	.	.
32D	.	.
32GJJJ	.	.
32GGLLL	.	.
32BB	.	.
32D	.	.
32GJJJ	.	.
.	(16qff#XLL	.
.	16qggJJ)	.
=65	=65	=65
8C'	8cc' 8ccc'	ff
8r	8r	.
8GG' 8G'	8g' 8gg'	.
8r	8r	.
=66	=66	=66
*>A1	*>A1	*>A1
4CC 4C	4c 4cc	.
8r	8r	.
=67:|!	=67:|!	=67:|!
*>A2	*>A2	*>A2
4CC 4C	4c 4cc	.
4r	4r	.
!!LO:LB:g=original
=68!|:	=68!|:	=68!|:
*>B	*>B	*>B
8AA'/ 8A'/	8a' 8aa'	p
8r	8r	.
8EE' 8E'	8e'\ 8ee'\	.
8r	8r	.
=69	=69	=69
8AAA' 8AA'	8A' 8a'	.
8r	8r	.
4r	4r	.
=70	=70	=70
8d	24r	.
.	(24ddLL	.
.	24eeJJ	.
8r	24ffLL	.
.	24ee	.
.	24ddJJ)	.
8A	24r	.
.	(24aaLL	.
.	24bbnJJ	.
8r	24ccc#LL	.
.	24bb	.
.	24aaJJ)	.
=71	=71	=71
8D	16r	.
.	(16dddLL	.
8r	16ccc#	.
.	16dddJJ	.
4r	16eeeLL	.
.	16ddd	.
.	16fff	.
.	16dddJJ)	.
=72	=72	=72
8A	24r	.
.	(24ccc#LL	.
.	24dddJJ	.
8r	24eeeLL	.
.	24ddd	.
.	24ccc#JJ)	.
8E	24r	.
.	(24ccc#LL	.
.	24dddJJ	.
8r	24eeeLL	.
.	24ddd	.
.	24ccc#JJ)	.
!!LO:LB:g=original
=73	=73	=73
8AA	16r	.
.	(16ccc#sSsSLL	.
8r	16eee	.
.	16dddJJ	.
4r	16ccc#LL	.
.	16bb-X	.
.	16aa	.
.	16ggJJ)	.
=74	=74	=74
24r	8dd 8ff 8aa 8ddd	f
(24DDLL	.	.
24EEJJ	.	.
24FFLL	8r	.
24EE	.	.
24DDJJ)	.	.
24r	8a 8cc# 8ee 8aa	.
(24AALL	.	.
24BBnJJ	.	.
24C#LL	8r	.
24BB	.	.
24AAJJ)	.	.
=75	=75	=75
24r	8d 8f 8a 8dd	.
(24DLL	.	.
24EJJ	.	.
24FLL	8r	.
24E	.	.
24DJJ)	.	.
(16ALL	4r	.
16F	.	.
16E	.	.
16DJJ)	.	.
=76	=76	=76
24r	8a 8cc# 8ee 8aa	.
(24AALL	.	.
24BBnJJ	.	.
24C#LL	8r	.
24BB	.	.
24AAJJ)	.	.
24r	8e\ 8g#\ 8bn\ 8ee\	.
(24ELL	.	.
24F#JJ	.	.
24G#LL	8r	.
24F#	.	.
24EJJ)	.	.
!!LO:LB:g=original
=77	=77	=77
16r	8c# 8e 8a	.
(16G#LL	.	.
16A	8r	.
16B-XJJ	.	.
16ALL	4r	.
16Gn	.	.
16Fn	.	.
16EJJ)	.	.
=78	=78	=78
*	*tuplet	*
!	!LO:TUP:a	!
8DD'	24r	fp
.	24fLL	.
.	24ffJJ	.
*	*Xtuplet	*
8D 8F 8AL	24r	.
.	24g#LL	.
.	24gg#JJ	.
8D 8F 8A	24r	.
.	24aLL	.
.	24aaJJ	.
8D 8F 8AJ	24r	.
.	24dLL<	.
.	24ddJJ	.
=79	=79	=79
8EE'	24r	.
.	24dLL	.
.	24ddJJ	.
8E 8G 8AL	24r	.
.	24c#LL	.
.	24cc#JJ	.
8E 8G 8A	24r	.
.	24c#LL	.
.	24cc#JJ	.
8E 8G 8AJ	24r	.
.	24eLL	.
.	24eeJJ	.
=80	=80	=80
8FF'	24r	.
.	24eLL	.
.	24eeJJ	.
8F 8AL	24r	.
.	24dLL	.
.	24ddJJ	.
8F 8A	24r	.
.	24dLL	.
.	24ddJJ	.
8F 8AJ	24r	.
.	24fLL>	.
.	24ffJJ	.
!!LO:LB:g=original
=81	=81	=81
8CC#'	24r	.
.	24fLL	.
.	24ffJJ	.
8C# 8AL	24r	.
.	24eLL<	.
.	24eeJJ	.
8C# 8A	24r	.
.	24eLL<	.
.	24eeJJ	.
8C# 8AJ	24r	.
.	24gLL	.
.	24ggJJ	.
=82	=82	=82
8D'L	24r	<
.	24gLL	.
.	24ggJJ	.
8d'J	24r	.
.	24fLL	.
.	24ffJJ	.
8CnL	24r	.
.	24gLL	.
.	24ggJJ	.
8cn'J	24r	.
.	24f#LL	.
.	24ff#JJ	.
=83	=83	=83
8BB-'L	24r	.
.	24aLL	.
.	24aaJJ	.
8B-'J	24r	.
.	24gLL	.
.	24ggJJ	.
8FF#'L	24r	.
.	24b-LL	.
.	24bb-JJ	.
8F#'J	24r	.
.	24aLL	.
.	24aaJJ	.
=84	=84	=84
8GG'	24r	fp
.	24ccLL	.
.	24cccJJ	.
8G 8B- 8dL	24r	.
.	24b-LL	.
.	24bb-JJ	.
8G 8B- 8d	24r	.
.	24ddLL	.
.	24dddJJ	.
8G 8B- 8dJ	24r	.
.	24gLL	.
.	24ggJJ	.
!!LO:LB:g=original
=85	=85	=85
8AA'	24r	.
.	24gLL	.
.	24ggJJ	.
8A 8c 8dL	24r	.
.	24eLL<	.
.	24eeJJ	.
8A 8c 8d	24r	.
.	24f#LL	.
.	24ff#JJ	.
8A 8c 8dJ	24r	.
.	24aLL	.
.	24aaJJ	.
=86	=86	=86
8BB-'	24r	.
.	24aLL	.
.	24aaJJ	.
8B- 8dL	24r	.
.	24f#LL	.
.	24ff#JJ	.
8B- 8d	24r	.
.	24gLL	.
.	24ggJJ	.
8B- 8dJ	24r	.
.	24b-LL	.
.	24bb-JJ	.
=87	=87	=87
8F#'	24r	.
.	24b-LL	.
.	24bb-JJ	.
8c 8dL	24r	.
.	24g#LL	.
.	24gg#JJ	.
8c 8d	24r	.
.	24aLL	.
.	24aaJJ	.
8c 8dJ	24r	.
.	24ccLL	.
.	24cccJJ	.
=88	=88	=88
8G'L	24r	<
.	24ccLL	.
.	24cccJJ	.
8g'J	24r	.
.	24b-LL	.
.	24bb-JJ	.
8Fn'L	24r	.
.	24ccLL	.
.	24cccJJ	.
8fn'J	24r	.
.	24bnLL	.
.	24bbnJJ	.
!!LO:LB:g=original
=89	=89	=89
8E-'L	24r	.
.	24ddLL	.
.	24dddJJ	.
8e-'J	24r	.
.	24ccLL	.
.	24cccJJ	.
8BBn'L	24r	.
.	24ee-LL	.
.	24eee-JJ	.
8Bn'J	24r	.
.	24ddLL	.
.	24dddJJ	.
=90	=90	=90
8C'L	24r	ff
.	24ffLL	.
.	24fffJJ	.
8c'J	24r	.
.	24ee-LL	.
.	24eee-JJ	.
8BB-X'L	24r	.
.	24ffLL	.
.	24fffJJ	.
8B-X'J	24r	.
.	24eenLL	.
.	24eeenJJ	.
=91	=91	=91
8AA'L	24r	.
.	24ffLL	.
.	24fffJJ	.
8A'J	24r	.
.	24ccLL	.
.	24cccJJ	.
8FF'L<	24r	.
.	24ffLL	.
.	24fffJJ	.
8F'J	24r	.
.	24ee-LL	.
.	24eee-JJ	.
=92	=92	=92
8BB-'	24r	fp
.	24ee-LL	.
.	24eee-JJ	.
8B- 8d 8fL	24r	.
.	24ddLL	.
.	24dddJJ	.
8B- 8d 8f	24r	.
.	24ffLL	.
.	24fffJJ	.
8B- 8d 8fJ	24r	.
.	24b-LL	.
.	24bb-JJ	.
!!LO:LB:g=original
=93	=93	=93
8C'	24r	.
.	24b-LL	.
.	24bb-JJ	.
8c 8e- 8fL	24r	.
.	24g#LL	.
.	24gg#JJ	.
8c 8e- 8f	24r	.
.	24aLL	.
.	24aaJJ	.
8c 8e- 8fJ	24r	.
.	24ccLL	.
.	24cccJJ	.
=94	=94	=94
8D'	24r	<
.	24ccLL	.
.	24cccJJ	.
8dL	24r	.
.	24aLL	.
.	24aaJJ	.
8d 8f	24r	.
.	24b-LL	.
.	24bb-JJ	.
8d 8fJ	24r	.
.	24ddLL	.
.	24dddJJ	.
=95	=95	=95
8A'	24r	.
.	24ddLL	.
.	24dddJJ	.
8c 8e- 8fL	24r	.
.	24bnLL	.
.	24bbnJJ	.
8c 8e- 8f	24r	.
.	24ccLL	.
.	24cccJJ	.
8c 8e- 8fJ	24r	.
.	24ee-LL	.
.	24eee-JJ	.
*clefG2	*	*
=96	=96	=96
8b-/	24r	p
.	(24dddLL	.
.	24eee-JJ	.
8r	24fffLL	.
.	24eee-	.
.	24dddJJ)	.
8f	24r	.
.	(24dddLL	.
.	24eee-JJ	.
8r	24fffLL	.
.	24eee-	.
.	24dddJJ)	.
!!LO:LB:g=original
=97	=97	=97
8B-	24r	.
.	(24dddLL	.
.	24eee-JJ	.
8r	24fffLL	.
.	24eee-	.
.	24eee-JJ)	.
4r	(16eeenLL	.
.	16fff	.
.	16ddd	.
.	16bb-JJ)	.
=98	=98	=98
8f	24r	.
.	(24aaLL	.
.	24bb-JJ	.
8r	24cccLL	.
.	24bb-	.
.	24aaJJ)	.
8c	24r	.
.	(24aaLL	.
.	24bb-JJ	.
8r	24cccLL	.
.	24bb-	.
.	24aaJJ)	.
*clefF4	*	*
=99	=99	=99
8F	24r	.
.	(24aaLL	.
.	24bb-JJ	.
8r	24cccLL	.
.	24bb-	.
.	24aaJJ)	.
4r	(16eee-LL	.
.	16ccc	.
.	16aa	.
.	16ee-JJ)	.
=100	=100	=100
24r	8b- 8dd- 8ff 8bb-	<
(24BB-LL	.	.
24CJJ	.	.
24D-LL	8r	.
24C	.	.
24BB-JJ)	.	.
24r	8f 8b- 8dd- 8ff	.
(24BB-LL	.	.
24CJJ	.	.
24D-XLL	8r	.
24C	.	.
24BB-JJ)	.	.
!!LO:LB:g=original
=101	=101	=101
24r	8d- 8f 8b- 8dd-	.
(24BB-LL	.	.
24CJJ	.	.
24D-LL	8r	.
24C	.	.
24BB-JJ)	.	.
(16FLL	4r	.
16D-	.	.
16C	.	.
16BB-JJ)	.	.
=102	=102	=102
24r	8e- 8f 8a 8ee-	f
(24FFLL	.	.
24GGJJ	.	.
24AALL	8r	.
24GG	.	.
24FFJJ)	.	.
24r	8e- 8f 8a 8cc	.
(24AALL	.	.
24BB-JJ	.	.
24CLL	8r	.
24BB-	.	.
24AAJJ)	.	.
=103	=103	=103
24r	8c 8e- 8f 8a	.
(24CLL	.	.
24D-JJ	.	.
24E-LL>	8r	.
24D-	.	.
24CJJ)	.	.
16FLL>	4r	.
(16E-	.	.
16D-	.	.
16CJJ)	.	.
=104	=104	=104
8B-	24r	.
.	(24b-LL	p
.	24ccJJ	.
8r	24dd-LL	.
.	24cc	.
.	24b-JJ)	.
8F	24r	.
.	(24b-LL	.
.	24ccJJ	.
8r	24dd-LL	.
.	24cc	.
.	24b-JJ)	.
!!LO:LB:g=original
=105	=105	=105
8BB-	24r	.
.	(24b-LL	.
.	24ccJJ	.
8r	24dd-LL	.
.	24cc	.
.	24b-JJ)	.
4r	(16bb-LL	.
.	16ff	.
.	16ddd-	.
.	16ffJJ)	.
=106	=106	=106
8C	24r	.
.	(24eenLL	.
.	24ffJJ	.
8r	24ggLL	.
.	24ff	.
.	24eeJJ)	.
8GG	24r	.
.	(24eeLL	.
.	24ffJJ	.
8r	24ggLL	.
.	24ff	.
.	24eeJJ)	.
=107	=107	=107
8CC	24r	.
.	(24eeLL	.
.	24ffJJ	.
8r	24ggLL	.
.	24ff	.
.	24eeJJ	.
4r	16bb-LL	.
.	16gg	.
.	16ee	.
.	16b-JJ)	.
=108	=108	=108
8F	24r	<
.	(24a-LL	.
.	24b-JJ	.
8r	24ccLL>	.
.	24b-	.
.	24a-JJ)	.
8C	24r	.
.	(24a-LL	.
.	24b-JJ	.
8r	24ccLL>	.
.	24b-	.
.	24a-JJ)	.
!!LO:LB:g=original
=109	=109	=109
8FF	24r	.
.	(24a-LL	.
.	24b-JJ	.
8r	24ccLL>	.
.	24b-	.
.	24a-JJ)	.
4r	(16ffLL	.
.	16a-	.
.	16aa-	.
.	16a-JJ)	.
=110	=110	=110
8D-/	24r	.
.	(24ffLL	f
.	24ggJJ	.
8r	24aa-LL	.
.	24gg	.
.	24ffJJ)	.
8AA-	24r	.
.	(24ffLL	.
.	24ggJJ	.
8r	24aa-LL	.
.	24gg	.
.	24ffJJ)	.
=111	=111	=111
8DD-	24r	.
.	(24ffLL	.
.	24ggJJ	.
8r	24aa-LL	.
.	24gg	.
.	24ffJJ)	.
8CC	(16aa-LL	.
.	16ff	.
8r	16fff	.
.	16ffJJ)	.
=112	=112	=112
!	!	!LO:DY:b=2:rj
8BBBn	24r	ff
.	(24ffLL	.
.	24ggJJ	.
8r	24aa-LL	.
.	24gg	.
.	24ffJJ)	.
4r	(16dddnLL	.
.	16ff	.
.	16ddd	.
.	16ffJJ)	.
!!LO:LB:g=original
=113	=113	=113
4BBB-z	24r	.
.	(24ffLL	.
.	24ggJJ	.
.	24aa-LL	.
.	24gg	.
.	24ffJJ)	.
4r	(16dddLL	.
.	16ff	.
.	16ddd	.
.	16ffJJ)	.
=114	=114	=114
4AAAnz	24r	.
.	(24ffLL	.
.	24ggJJ	.
.	24aanLL	.
.	24gg	.
.	24ffJJ)	.
4r	(16dddLL	>
.	16ff	.
.	16ddd	.
.	16ffJJ	.
=115	=115	=115
2r	16dddLL	.
.	16ff	.
.	16ddd	.
.	16ffJJ	.
.	16dddLL	.
.	16ff	.
.	16ddd	.
.	16ffJJ)	.
=116	=116	=116
4AAA 4AA	16r	p
.	(16eeLL	.
.	16ddd	.
.	16eeJJ	.
4r	16dddLL	.
.	16ee	.
.	16ddd	.
.	16eeJJ)	.
!!LO:LB:g=original
=117	=117	=117
4AAA 4AA	16r	pp
.	(16eeLL	.
.	16ccc#	.
.	16eeJJ	.
4r	16ccc#LL	.
.	16ee	.
.	16ccc#	.
.	16eeJJ)	.
=118	=118	=118
4r	4r	.
8r;	8r;	.
=||	=||	=||
*k[f#c#]	*k[f#c#]	*
8D' 8A'	8d' 8f#'	p
=119	=119	=119
4D' 4A'	4d' 4f#' 4a'	.
4r	8r	.
*	*tuplet	*
.	(24aaLL	.
.	24gg#	.
.	24bbJJ)	.
=120	=120	=120
4r	4aa'	.
8r	8r	.
8D' 8A'	8d' 8f#'	.
=121	=121	=121
4C#' 4A'	4e' 4g'	.
4r	8r	.
.	(24aaLL	.
.	24gg#	.
.	24bbJJ)	.
=122	=122	=122
2r	4aa'	.
.	8r	.
.	(8gn	.
=123	=123	=123
(<4D 4F# 4A	16.f#LL	<
.	32aJJk	.
.	4dd	.
4E 4G 4A 4c#	.	.
.	8cc#	.
!!LO:LB:g=original
=124	=124	=124
4F# 4A 4d	8dd	.
.	4ff#	.
4G 4B 4d	.	.
.	[8ee	[
*clefG2	*	*
=125	=125	=125
4A 4cn 4d 4f#	8ee]	>
.	4ff#	.
4c 4d 4f# 4a	.	.
.	16ggLL	.
.	16aaJJ)	]
=126	=126	=126
4B 4d 4g)	(8aa^L	.
.	8ggJ)	.
4r	4r	.
=127	=127	=127
(4B 4d 4g	(8ggT	.
.	(ff#16qLL	.
.	gg16qJJ	.
.	4bb^)	.
4c#X 4e 4a	.	.
.	16aaLL	.
.	16ggJJ)	.
=128	=128	=128
.	(ff#16qLL	.
.	gg16q	.
.	aa16qJJ	.
4d 4f# 4a	(8ggL)	.
.	[8ff#J	.
4G 4B 4e	16.ff#LL]	.
.	32eek	.
.	16.gg	.
.	32eeJJk)	.
=129	=129	=129
4A 4d 4f#	(8eeL	.
.	[8ddJ	.
4A 4e 4g	16.ddLL]	.
.	32cc#k	.
.	16.ee	.
.	32cc#JJk)	.
=130	=130	=130
4d) 4f#	4dd	.
4r	4r	.
!!LO:LB:g=original
=131	=131	=131
*clefF4	*	*
4r	4r	.
8r	8r	.
!	!	!LO:DY:rj
8D' 8d'	8f#' 8a'	pp
=132	=132	=132
4G' 4d'	4g' 4b-'	.
4r	8r	.
.	(24bb-LL	.
.	24aa	.
.	24cccnJJ)	.
=133	=133	=133
4r	4bb-'	.
8r	8r	.
8G' 8d'	8g' 8b-'	.
=134	=134	=134
4Cn' 4cn'	4e' 4b-'	.
4r	8r	.
*	*Xtuplet	*
.	(24bb-LL	pp
.	24aa	.
.	24cccnJJ)	.
=135	=135	=135
2r	4bb-'	.
.	8r	.
.	(24bb-LL	.
.	24aa	.
.	24cccnJJ)	.
=136	=136	=136
2r	8bb-'L	.
.	(24bb-L	.
.	24aa	.
.	24cccnJJ)	.
.	8bb-'L	.
.	(24bb-L	.
.	24aa	.
.	24cccJJ)	.
=137	=137	=137
4r	4bb-'	.
8r	8r	.
!!LO:LB:g=original
=||	=||	=||
*k[b-]	*k[b-]	*
8r	(8b-	p
=138	=138	=138
(<4F 4A 4c	16.aLL	.
.	32ccJJk	<
.	4ff	.
4G 4B- 4c	.	.
.	8ee)	.
*clefG2	*	*
=139	=139	=139
4A 4c 4f	(8ff	.
.	4aa	.
4B- 4d 4f 4g	.	.
.	[8gg)	[[
=140	=140	=140
4c 4f 4a	(8gg]	>
.	4aa	.
4e- 4f 4a 4cc	.	.
.	16bb-LL	.
.	16cccJJ)	]
=141	=141	=141
4d) 4f 4b-	(8ccc^L	.
.	8bb-J)	.
4r	4r	.
=142	=142	=142
(4d 4f 4b-	(8bb-T	.
.	(aa16qLL	.
.	bb-16qJJ	.
.	4ddd)	.
4en 4g 4cc	.	.
.	16cccLL	.
.	16bb-JJ)	.
=143	=143	=143
.	(aa16qLL	.
.	bb-16q	.
.	ccc16qJJ	.
4f 4a 4cc	(8bb-L)	.
.	[8aaJ)	.
4B- 4d 4g	(16.aaLL]	.
.	32ggk	.
.	16.bb-	.
.	32ggJJk)	.
=144	=144	=144
4c 4f 4a	(8ggL	.
.	[8ffJ)	.
8c) 8g 8b-	(16.ffLL]	.
.	32eek	.
8r	16.gg	.
.	32eeJJk)	.
*clefF4	*	*
!!LO:LB:g=original
=145	=145	=145
(16FFLL	4ff	.
16AA	.	.
16CC	.	.
16EEJJ	.	.
16FFLL	8r	.
16AA	.	.
16CC	8F (>8f	.
16EEJJ	.	.
=146	=146	=146
16FFLL	4A 4c 4f 4a	.
16AA	.	<
16CC	.	.
16EEJJ	.	.
16FFLL	4c 4f 4a 4cc)	.
16AA	.	.
16CC	.	.
16EEJJ	.	.
=147	=147	=147
16FFLL	4.f 4.a 4.cc (4.ff	.
16AA	.	.
16CC	.	.
16EEJJ	.	.
16FFLL	.	.
16AA	.	.
16CC	8a 8cc 8ff 8aa)	.
16EEJJ	.	[
=148	=148	=148
16FFLL	8cc 8ff 8aa (8ccc	.
16AA	.	.
16CC	4ff 4aa 4ccc 4fff	sf >
16EEJJ	.	.
16FFLL	.	.
16AA	.	.
16CC	8ff 8aa 8ccc 8fff)	.
16FFJJ	.	.
=149	=149	=149
16GGLL	4ff 4bb- 4ccc (4fff	.
16BB-	.	.
16CC	.	.
16FF#JJ	.	.
16GGLL	8ee 8bb- 8ccc 8eee)	.
16BB-	.	]
16CC	8r	.
16FF#JJ	.	.
=150	=150	=150
16GGLL	4E 4G 4B- (>4e	<
16BB-	.	.
16CC	.	.
16FF#JJ	.	.
16GGLL	4G 4B- 4e 4g	.
16BB-	.	.
16CC	.	.
16FF#JJ	.	.
!!LO:LB:g=original
=151	=151	=151
16GGLL	4.B- 4.e 4.g 4.b-)	.
16BB-	.	.
16CC	.	.
16FF#JJ	.	.
16GGLL	.	.
16BB-	.	.
16CC	8e (8ee	.
16FF#JJ	.	[[
=152	=152	=152
16GGLL	8g 8gg	.
16BB-	.	.
16CC	4b- 4bb-	sf >
16FF#JJ	.	.
16GGLL	.	.
16BB-	.	.
16CC	8a 8aa)	.
16GGJJ	.	.
=153	=153	=153
16AALL	4g (4gg	.
16C	.	.
16FF	.	.
16GG#JJ	.	.
16AALL	8f 8ff)	.
16C	.	]
16FF	8r	.
16AA-JJ)	.	.
=154	=154	=154
*^	*	*
!	!	!LO:TX:a:i:t=legato	!
4r	[2C	16fLL	p <
.	.	16a-	.
.	.	16c	.
.	.	16eJJ	.
[<4F	.	16fLL	.
.	.	16a-	.
.	.	16c	.
.	.	16eJJ	[[
*v	*v	*	*
=155	=155	=155
4.C] 4.F] 4.A-	16fLL	>
.	16a-	.
.	16c	.
.	16eJJ	.
.	16fLL	.
.	16a-	.
8F 8A-	16c	.
.	16eJJ	.
=156	=156	=156
8F 8A-L	16fLL	.
.	16a-	]
8F 8A-	16c	.
.	16eJJ	.
8F 8A-	16fLL	.
.	16g	.
8F 8A-J	16a-	.
.	16fJJ	.
!!LO:LB:g=original
=157	=157	=157
4E- 4G 4B-X	16gLL	.
.	16b-	.
.	16e-	.
.	16f#JJ	.
4r	16gLL	.
.	16b-	.
.	16e-	.
.	16f#JJ	.
=158	=158	=158
*^	*	*
4r	[2E-	16gLL	<
.	.	16b-	.
.	.	16e-	.
.	.	16f#JJ	.
[<4G	.	16gLL	.
.	.	16b-	.
.	.	16e-	.
.	.	16f#JJ	[[
*v	*v	*	*
=159	=159	=159
4.E-] 4.G] 4.B-	16gLL	>
.	16b-	.
.	16e-	.
.	16f#JJ	.
.	16gLL	.
.	16b-	.
8B- 8d-	16e-	.
.	16f#JJ	]]
=160	=160	=160
8B- 8d-L	16gLL	.
.	16b-	.
8B- 8d-	16e-	.
.	16f#JJ	.
8B- 8d-	16gLL	.
.	16b-	.
8B- 8d-J	16e-	.
.	16gJJ	.
=161	=161	=161
4A- 4c	16a-LL	.
.	16cc	.
.	16e-	.
.	16gJJ	.
4e-	16anLL	<
.	16cc	.
.	16f	.
.	16aJJ	[[
=162	=162	=162
4dn	16b-LL>	>
.	16ff	.
.	16f	.
.	16aJJ	]]
4d-	16bnLL>	.
.	16f	.
.	16ff	.
.	16bJJ	.
!!LO:LB:g=original
=163	=163	=163
*^	*	*
*	*tuplet	*	*
4C	(>24CLL	4cc	f
.	24E	.	.
.	24G	.	.
.	24E	.	.
.	24G	.	.
.	24EJJ)	.	.
*	*Xtuplet	*	*
4BBn	(>24BBnLL	8r	p
.	24D	.	.
.	24G	.	.
.	24D	8fff	.
.	24G	.	.
.	24DJJ)	.	.
=164	=164	=164	=164
*	*	*^	*
4C	24CLL	(8fffL	4ryy	.
.	24E	.	.	.
.	24G	.	.	.
.	24E	8eeeJ)	.	.
.	24G	.	.	.
.	24EJJ	.	.	.
4D	24DLL	8r	8ryy	.
.	24F	.	.	.
.	24G	.	.	.
.	24F	8bbn'	8ff	.
.	24G	.	.	.
.	24FJJ	.	.	.
=165	=165	=165	=165	=165
4C	24CLL	4ccc	(>8ffL	.
.	24E	.	.	.
.	24G	.	.	.
.	24E	.	8eeJ)	.
.	24G	.	.	.
.	24EJJ	.	.	.
4BBn	24BBnLL	4ryy	8r	.
.	24D	.	.	.
.	24G	.	.	.
.	24D	.	8fff'	sf
.	24G	.	.	.
.	24DJJ	.	.	.
=166	=166	=166	=166	=166
4C	24CLL	4ryy	(16fffLL	.
.	24E	.	.	.
.	.	.	16eee	.
.	24G	.	.	.
.	24E	.	16ddd	.
.	24G	.	.	.
.	.	.	16cccJJ)	.
.	24EJJ	.	.	.
4D	24DLL	8r	8r	.
.	24F	.	.	.
.	24G	.	.	.
.	24F	8bbn'	8ff	sf
.	24G	.	.	.
.	24FJJ	.	.	.
!!LO:LB:g=original
=167	=167	=167	=167	=167
4C	24CLL	4ccc	(>16ffLL	.
.	24E	.	.	.
.	.	.	16ee	.
.	24G	.	.	.
.	24E	.	16dd	.
.	24G	.	.	.
.	.	.	16ccJJ)	.
.	24EJJ	.	.	.
4D	24DLL	8r	8r	.
.	24F	.	.	.
.	24G	.	.	.
.	24F	8bbn'	8ff	sf
.	24G	.	.	.
.	24FJJ	.	.	.
=168	=168	=168	=168	=168
4C	24CLL	4ccc	(>16ffLL	.
.	24E	.	.	.
.	.	.	16ee	.
.	24G	.	.	.
.	24E	.	16dd	.
.	24G	.	.	.
.	.	.	16ccJJ)	.
.	24EJJ	.	.	.
4D	24DLL	8r	8r	.
.	24F	.	.	.
.	24G	.	.	.
.	24F	8bbn'	8ff	sf
.	24G	.	.	.
.	24FJJ	.	.	.
*v	*v	*	*	*
=169	=169	=169	=169
4C 4E 4G	4ccc	(>16ffLL	>
.	.	16ee	.
.	.	16dd	.
.	.	16ccJJ	]
4r	4ryy	16bnLL	p
.	.	16cc	.
.	.	16dd	.
.	.	16ccJJ	.
*	*v	*v	*
=170	=170	=170
2r	16bnLL	.
.	16cc	.
.	16dd	.
.	16ccJJ	.
.	16bLL	.
.	16cc	<
.	16cc#	.
.	16ddJJ)	[[
=171	=171	=171
*^	*	*
4c	(8B-XL	(8ddL	>
.	8GJ)	8b-XJ)	]
8c'L	8E'L	8g'L	.
8c'J	8FJ	8a'sSsSJ	.
!!LO:LB:g=original
=172	=172	=172	=172
4c	(>8B-L	(8ddL	>
.	8GJ)	8b-J)	]]
8c'yL	8E'L	8g'L	.
8c'yJ	8F'J	8a'sSsSJ	.
*v	*v	*	*
=173	=173	=173
8BB-' 8B-'	8d' 8b-'	.
8r	8r	.
8C' 8E' 8G'	8c' 8e' 8g'	.
8r	8r	.
=174	=174	=174
4FF' 4C' 4F'	4c' 4f' 4a'	.
*clefG2	*	*
8r	8r	.
8a-'/ 8cc'/	32r	ff
.	(32cccLLL	.
.	32aa-	.
.	32ccJJJ	.
=175	=175	=175
(8b-z 8dd-zL>	32r	.
.	32ddd-LLL	.
.	32bb-	.
.	32ccJJJ	.
8g) 8b-J	32r	.
.	32bb-LLL	.
.	32gg	.
.	32ccJJJ	.
8e' 8g'L	32r	.
.	32ggLLL	.
.	32ee	.
.	32ccJJJ	.
8f' 8a-'J	32r	.
.	32aa-LLL	.
.	32ff	.
.	32ccJJJ	.
=176	=176	=176
(8b-z 8dd-zL>	32r	.
.	32ddd-LLL	.
.	32bb-	.
.	32ccJJJ	.
8g) 8b-J	32r	.
.	32bb-LLL	.
.	32gg	.
.	32ccJJJ	.
8e' 8g'L	32r	.
.	32ggLLL	.
.	32ee	.
.	32ccJJJ	.
8f' 8a-'J	32r	.
.	32aa-LLL	.
.	32ff	.
.	32ccJJJ)	.
!!LO:LB:g=original
=177	=177	=177
8B-' 8d-' 8g'	8dd-' 8gg' 8bb-'	f
8r	8r	.
8c' 8e' 8g'	8b-' 8ee' 8gg'	.
8r	8r	.
=178	=178	=178
8d-' 8f'	8a-' 8dd-' 8ff'	.
8r	8r	.
4r	4r	.
*clefF4	*	*
=179	=179	=179
8BBBn' 8BBn'	8A-'> 8dn'> 8f'>	pp
8r	8r	.
4r	4r	.
=180	=180	=180
8BB-X' 8C'L	16r	.
.	16G 16eLL	<
8EE 8C	16r	.
.	16B-X 16gJJ	.
8FF' 8C'	16r	.
.	16An 16fLL	.
8CC' 8C'J	16r	.
.	16f 16aJJ	.
=181	=181	=181
8GG' 8C'L	16r	.
.	16e 16b-LL<	.
8CC' 8C'	16r	.
.	16b- 16eeJJ	.
8FF' 8C'	16r	.
.	16a 16ffLL	.
8CC 8CJ	16r	.
.	16ff 16aaJJ	.
=182	=182	=182
8GG' 8C'L	16r	.
.	16ee 16bb-LL	.
8BB-' 8C'	16r	.
.	16ee 16gg 16cccJJ	.
8AA' 8C'	16r	.
.	16ff 16aa 16cccLL	.
8FF' 8C'J	16r	.
.	16aa 16ccc 16fffJJ	.
!!LO:LB:g=original
=183	=183	=183
8GG' 8C'L	16r	.
.	16gg 16ccc 16eeeLL	.
8BB-' 8C'	16r	.
.	16ee 16gg 16cccJJ	.
8AA' 8C'	16r	.
.	16ff 16aa 16cccLL	.
8FF' 8C'J	16r	.
.	16aa 16ccc 16fffJJ	.
=184	=184	=184
8BB-' 8D' 8G'	8r	.
*	*tuplet	*
8r	(24dddLL	f
.	24ccc#	.
.	24eeeJJ)	.
8B-'< 8d>'< 8g>'<	8ddd'\	.
8r	(24bb-LL<	.
.	24aa	.
.	24cccnJJ)	.
*	*Xtuplet	*
=185	=185	=185
2r	8bb-'	.
.	(24ggLL	.
.	24ff#	.
.	24aaJJ)	.
.	8gg'	.
.	(24ddLL	.
.	24cc#	.
.	24eeJJ)	.
=186	=186	=186
8r	8dd'	.
(4G	(4gz	.
16ALL	16aLL	.
16B-JJ)	16b-JJ)	.
=187	=187	=187
4c	([4ccn	f
4C 4E 4G 4B-	24ccLL]	.
.	24dd	.
.	24ccJJ	.
.	24b-LL<	.
.	24a	.
.	24gJJ)	.
=188	=188	=188
*^	*^	*
8F' 8A'	8ryy	8ryy	8f'	.
*v	*v	*	*	*
*clefG2	*	*	*
*^	*	*	*
(4g	4.d 4.f	(4gg	4.ff	ff
16aLL	.	16aaLL	.	.
16bnJJ)	.	16bbnJJ)	.	.
*v	*v	*	*	*
*	*v	*v	*
!!LO:LB:g=original
=189	=189	=189
4c 4f 4a 4cc	([4ccc	.
4c 4g 4b-X	32cccLLL]	.
.	32ddd	.
.	32ccc	.
.	32bbnJJJ	.
*	*tuplet	*
.	24cccLL	.
.	24ddd	.
.	24eeeJJ)	.
*clefF4	*	*
=190	=190	=190
*tuplet	*	*
!	!	!LO:DY:b=2:rj
(24FLL	8fff	p
24A	.	.
24cJJ)	.	.
*Xtuplet	*	*
24FLL	8r	.
24A	.	.
24cJJ	.	.
24FLL	8cc' 8ccc'L	p
24A	.	.
24cJJ	.	.
24FLL	8cc' 8ccc'J	.
24A	.	.
24cJJ	.	.
=191	=191	=191
24FLL	8a' 8aa'	.
24A	.	.
24cJJ	.	.
24FLL	8r	.
24A	.	.
24cJJ	.	.
24ALL	8ff' 8fff'L	.
24c	.	.
24fJJ	.	.
24ALL	8ff' 8fff'J	.
24c	.	.
24fJJ	.	.
*clefG2	*	*
=192	=192	=192
24B- 24dLL	8dd' 8ddd'	.
24f	.	.
24gJJ	.	.
24B- 24dLL	8r	.
24f	.	.
24gJJ	.	.
*	*clefF4	*
!	!	!LO:DY:rj
24Bn 24dLL	8BBn'L	f
24f	.	.
24gJJ	.	.
24B 24dLL	8BB'J	.
24f	.	.
24gJJ	.	.
!!LO:LB:g=original
=193	=193	=193
.	(BBn8q	.
24cLL	2CTT)	.
24f	.	.
24aJJ	.	.
24cLL	.	.
24f	.	.
24aJJ	.	.
24cLL	.	.
24e	.	.
24gJJ	.	.
24cLL	.	.
24e	.	.
24gJJ	.	.
.	(16qBBLL	.
.	16qCJJ)	.
*clefF4	*	*
=194	=194	=194
!	!	!LO:DY:b=2
32FLLL	4FF	p
32A	.	.
32c	.	.
32fJJJ	.	.
32FLLL	.	.
32A	.	.
32c	.	.
32fJJJ	.	.
*	*clefG2	*
32FLLL	(32ccLLK	p
32A	16.ccc'JJ)	.
32c	.	.
32fJJJ	.	.
32FLLL	(32ccLLK	.
32A	16.ccc'JJ)	.
32c	.	.
32fJJJ	.	.
=195	=195	=195
32FLLL	(32aLLK	.
32A	16.aa'JJ)	.
32c	.	.
32fJJJ	.	.
32FLLL	8r	.
32A	.	.
32c	.	.
32fJJJ	.	.
24ALL	(32ffLLK	.
.	16.fff'JJ)	.
24c	.	.
24fJJ	.	.
24ALL	(32ffLLK	.
.	16.fff'JJ)	.
24c	.	.
24fJJ	.	.
*clefG2	*	*
!!LO:LB:g=original
=196	=196	=196
32B-LLL	(32ddLLK	.
32d	16.ddd'JJ)	.
32f	.	.
32gJJJ	.	.
32B-LLL	8r	.
32d	.	.
32f	.	.
32gJJJ	.	.
*	*clefF4	*
32BnLLL	8BBn'L	f
32d	.	.
32f	.	.
32gJJJ	.	.
32BLLL	8BB'J	.
32d	.	.
32f	.	.
32gJJJ	.	.
=197	=197	=197
*tuplet	*	*
.	(BBn8q	.
24cLL	2CTT)	ff
24f	.	.
24aJJ	.	.
24cLL	.	.
24f	.	.
24aJJ	.	.
24cLL	.	.
24e	.	.
24gJJ	.	.
24cLL	.	.
24e	.	.
24gJJ	.	.
.	(16qBBLL	.
.	16qCJJ)	.
*clefF4	*	*
=198	=198	=198
32FLLL	4FF	.
32A	.	.
32c	.	.
32fJJJ	.	.
32FLLL	.	.
32A	.	.
32c	.	.
32fJJJ	.	.
*	*clefG2	*
24FLL	8bbn'L	p <
24A-	.	.
24cJJ	.	.
24FLL	8bb'J	.
24A-	.	.
24cJJ	.	[
!!LO:LB:g=original
=199	=199	=199
.	bbn8q	.
32CLLL	2cccTT	sf
32F	.	.
32G	.	.
32cJJJ	.	.
32CLLL	.	.
32F	.	.
32G	.	.
32cJJJ	.	.
32CLLL	.	.
32E	.	.
32G	.	.
32cJJJ	.	.
32CLLL	.	.
32E	.	.
32G	.	.
32cJJJ	.	.
.	(16qbbLL	.
.	16qcccJJ)	.
=200	=200	=200
32FFLLL	4ff 4fff	.
32AA	.	.
32C	.	.
32FJJJ	.	.
32FFLLL	.	.
32AA	.	.
32C	.	.
32FJJJ	.	.
24FFLL	8bn'L	<
24AA-	.	.
24CJJ	.	.
24FFLL	8b'J	.
24AA-	.	.
24CJJ	.	.
=201	=201	=201
.	(bn8q	.
32CCLLL	2ccTT)	ff
32FF	.	.
32GG	.	.
32CJJJ	.	.
32CCLLL	.	.
32FF	.	.
32GG	.	.
32CJJJ	.	.
32CCLLL	.	.
32EE	.	.
32GG	.	.
32CJJJ	.	.
32CCLLL	.	.
32EE	.	.
32GG	.	.
32CJJJ	.	.
.	(16qbLL	.
.	16qccJJ)	.
=202	=202	=202
8FF'	8f'/ 8ff'/	.
8r	8r	.
8CC' 8C'	8c' 8cc'	.
8r	8r	.
=203	=203	=203
4FFF 4FF	4F< 4f	.
4rAAA	4r	.
==:|!	==:|!	==:|!
*-	*-	*-
!!!RDF**kern: > = above
!!!RDF**kern: < = below
!!!RDF**dynam: > = dim.
!!!verovio: beamFrenchStyle
!!!LOR: Durand 1915, plates 9327/9328, Paul Dukas, ed.
!!!PED: Dukas, Paul
!!!URL-vhv: https://verovio.humdrum.org/?file=beethoven/sonatas/sonata06-1.krn
!!!URL-pdf: https://github.com/craigsapp/beethoven-piano-sonatas/blob/master/reference-edition/sonata06-1.pdf
!!!ENC: Craig Stuart Sapp
!!!END: 2005/08/25
!!!EED: Craig Stuart Sapp
!!!EEV: 2021/02/13
